src/Pure/16/symbolic/actions/format-linear-symbolic.svg

<?xml version="1.0" encoding="UTF-8" standalone="no"?>
<svg
   width="16"
   height="16"
   version="1.1"
   id="svg2"
   sodipodi:docname="format-linear-symbolic.svg"
   inkscape:version="1.4.2 (ebf0e940d0, 2025-05-08)"
   xmlns:inkscape="http://www.inkscape.org/namespaces/inkscape"
   xmlns:sodipodi="http://sodipodi.sourceforge.net/DTD/sodipodi-0.dtd"
   xmlns="http://www.w3.org/2000/svg"
   xmlns:svg="http://www.w3.org/2000/svg">
  <defs
     id="defs2">
     <style
        id="current-color-scheme"
        type="text/css">
        .ColorScheme-Text { color:#363636; }
     </style>
  </defs>
  <sodipodi:namedview
     id="namedview2"
     pagecolor="#ffffff"
     bordercolor="#000000"
     borderopacity="0.25"
     inkscape:showpageshadow="2"
     inkscape:pageopacity="0.0"
     inkscape:pagecheckerboard="0"
     inkscape:deskcolor="#d1d1d1"
     inkscape:zoom="49.6875"
     inkscape:cx="8"
     inkscape:cy="8"
     inkscape:window-width="1920"
     inkscape:window-height="1010"
     inkscape:window-x="0"
     inkscape:window-y="0"
     inkscape:window-maximized="1"
     inkscape:current-layer="svg2" />
  <path
     id="path1"
     style="fill:currentColor;opacity:0.35"
     class="ColorScheme-Text"
     d="M 3.0234375 1 C 1.9154375 1 1.0234375 1.89202 1.0234375 3 L 1.0234375 13 C 1.0234375 14.108 1.9154575 15 3.0234375 15 L 13.025391 15 C 14.133391 15 15.023437 14.10798 15.023438 13 L 15.023438 3 C 15.023438 1.892 14.133321 1 13.025391 1 L 3.0234375 1 z M 3.0234375 2 L 13.023438 2 C 13.577438 2 14.023437 2.446 14.023438 3 L 14.023438 13 C 14.023438 13.554 13.577438 14 13.023438 14 L 3.0234375 14 C 2.4694375 14 2.0234375 13.554 2.0234375 13 L 2.0234375 3 C 2.0234375 2.446 2.4694375 2 3.0234375 2 z " />
  <path
     id="path2"
     style="fill:currentColor;fill-opacity:1"
     class="ColorScheme-Text"
     d="M 14.042969 1.4863281 A 0.50005 0.50005 0 0 0 13.90625 1.5 A 0.50005 0.50005 0 0 0 13.65625 1.65625 L 1.65625 13.65625 A 0.50005 0.50005 0 1 0 2.375 14.34375 L 14.375 2.34375 A 0.50005 0.50005 0 0 0 14.042969 1.4863281 z " />
</svg>

<svg width="16" height="16" version="1.1" xmlns="http://www.w3.org/2000/svg">
 <g transform="translate(-31.976 -220.36)" fill="#363636">
  <path transform="translate(31.976 220.36)" d="m3.0234 1c-1.108 0-2 0.89202-2 2v10c0 1.108 0.89202 2 2 2h10.002c1.108 0 1.998-0.89202 1.998-2v-10c0-1.108-0.89007-2-1.998-2h-10.002zm0 1h10c0.554 0 1 0.446 1 1v10c0 0.554-0.446 1-1 1h-10c-0.554 0-1-0.446-1-1v-10c0-0.554 0.446-1 1-1z" opacity=".25"/>
  <path d="m45.882 221.86a0.50005 0.50005 0 0 0-0.25 0.15625l-12 12a0.50005 0.50005 0 1 0 0.71875 0.6875l12-12a0.50005 0.50005 0 0 0-0.46875-0.84375z"/>
 </g>
</svg>
